X: 86
M:2/4
L:1/16
K:D
((3ABc)|d2(dA) BAFG|"4"AFGE D2("4"DA,)|\
d2(dA) BAFG|"4"AFGE D2("4"DA,)|\
|:(uFG)|vA3uB .B.A.F.A|Adfd "4"edBA|vA3uB A2(dc)|BAGF F2E2|


